src/assets/Devices/Generic Front.svg

<svg width="870" height="613" viewBox="0 0 870 613" fill="none" xmlns="http://www.w3.org/2000/svg">
<circle cx="217.749" cy="173.927" r="79.5791" stroke="white" stroke-width="0.941764"/>
<circle cx="217.751" cy="173.927" r="63.5691" stroke="white" stroke-width="0.941764"/>
<circle cx="217.75" cy="173.928" r="50.297" stroke="white" stroke-width="3"/>
<circle cx="217.75" cy="173.928" r="30.6073" stroke="white" stroke-width="0.941764"/>
<circle cx="528.53" cy="315.193" r="79.5791" stroke="white" stroke-width="0.941764"/>
<circle cx="528.532" cy="315.192" r="63.5691" stroke="white" stroke-width="0.941764"/>
<circle cx="528.531" cy="315.192" r="50.297" stroke="white" stroke-width="3"/>
<circle cx="528.531" cy="315.191" r="30.6073" stroke="white" stroke-width="0.941764"/>
<circle cx="326.996" cy="316.133" r="71.1032" stroke="white" stroke-width="0.941764"/>
<circle cx="326.998" cy="316.135" r="56.035" stroke="white" stroke-width="0.941764"/>
<path d="M377.898 334.028C379.519 334.028 380.97 332.994 381.408 331.434C382.774 326.568 383.504 321.437 383.504 316.135C383.504 310.833 382.774 305.702 381.408 300.836C380.97 299.275 379.519 298.241 377.898 298.241H346.775C345.735 298.241 344.892 297.398 344.892 296.358V265.235C344.892 263.614 343.858 262.162 342.297 261.724C337.431 260.359 332.3 259.629 326.998 259.629C321.696 259.629 316.565 260.359 311.699 261.724C310.138 262.162 309.105 263.614 309.105 265.235V296.358C309.105 297.398 308.261 298.241 307.221 298.241H276.098C274.477 298.241 273.026 299.275 272.588 300.836C271.222 305.702 270.492 310.833 270.492 316.135C270.492 321.437 271.222 326.568 272.588 331.434C273.026 332.994 274.477 334.028 276.098 334.028H307.221C308.261 334.028 309.105 334.872 309.105 335.912V367.034C309.105 368.655 310.138 370.107 311.699 370.545C316.565 371.91 321.696 372.641 326.998 372.641C332.3 372.641 337.431 371.91 342.297 370.545C343.858 370.107 344.892 368.655 344.892 367.034V335.912C344.892 334.872 345.735 334.028 346.775 334.028H377.898Z" stroke="white" stroke-width="3"/>
<circle cx="660.378" cy="116.479" r="26.8403" stroke="white" stroke-width="2.82529"/>
<circle cx="660.378" cy="231.376" r="26.8403" stroke="white" stroke-width="2.82529"/>
<circle cx="602.933" cy="172.985" r="26.8403" stroke="white" stroke-width="2.82529"/>
<circle cx="716.886" cy="172.985" r="26.8403" stroke="white" stroke-width="2.82529"/>
<path d="M656.602 132.491V121.302L647.031 103.031H653.061L658.665 114.058C658.841 114.423 658.996 114.76 659.131 115.07C659.279 115.38 659.421 115.711 659.556 116.061H659.657C659.792 115.711 659.927 115.38 660.061 115.07C660.21 114.76 660.378 114.423 660.567 114.058L666.172 103.031H671.594L662.125 121.221V132.491H656.602Z" fill="white"/>
<path d="M590.484 188.053L600.399 171.179H601.37L608.391 158.594H613.732L604.445 174.72H603.515L595.907 188.053H590.484ZM590.97 158.594H597.08L604.243 171.159H604.283L614.218 188.053H608.067L600.399 174.72H600.358L590.97 158.594Z" fill="white"/>
<path d="M646.891 245.501L656.886 215.98H662.895L672.87 245.501H667.265L660.406 224.114C660.245 223.602 660.11 223.143 660.002 222.738C659.894 222.32 659.793 221.916 659.698 221.524H659.597C659.503 221.916 659.401 222.32 659.294 222.738C659.186 223.143 659.051 223.602 658.889 224.114L652.151 245.501H646.891ZM652.07 238.723L653.122 234.797H666.375L667.468 238.723H652.07Z" fill="white"/>
<path d="M707.191 188.053V158.594H717.733C720.66 158.594 722.899 159.228 724.45 160.496C726.002 161.764 726.777 163.659 726.777 166.181C726.777 167.84 726.406 169.216 725.664 170.309C724.936 171.388 724.005 172.13 722.872 172.534V172.615C724.275 172.993 725.428 173.782 726.332 174.983C727.236 176.17 727.688 177.768 727.688 179.778C727.688 182.395 726.838 184.432 725.138 185.888C723.452 187.332 721.166 188.053 718.279 188.053H707.191ZM712.573 184.148H717.531C719.122 184.148 720.296 183.723 721.051 182.874C721.807 182.024 722.184 180.871 722.184 179.414C722.184 177.943 721.807 176.777 721.051 175.913C720.296 175.037 719.122 174.598 717.531 174.598H712.573V184.148ZM712.573 171.179H717.005C718.583 171.179 719.723 170.794 720.424 170.026C721.125 169.257 721.476 168.184 721.476 166.808C721.476 165.433 721.125 164.387 720.424 163.672C719.723 162.957 718.583 162.593 717.005 162.58H712.573V171.179Z" fill="white"/>
<path d="M299.797 86.6313C299.797 77.8377 306.926 70.709 315.719 70.709V70.709C324.513 70.709 331.642 77.8377 331.642 86.6313V109.041C331.642 117.834 324.513 124.963 315.719 124.963V124.963C306.926 124.963 299.797 117.834 299.797 109.041V86.6313Z" stroke="white"/>
<path d="M545.305 87.2211C545.305 78.1017 552.697 70.709 561.817 70.709V70.709C570.936 70.709 578.329 78.1017 578.329 87.2211V108.451C578.329 117.57 570.936 124.963 561.817 124.963V124.963C552.697 124.963 545.305 117.57 545.305 108.451V87.2211Z" stroke="white"/>
<path d="M68.9705 117.422C88.7475 72.217 111.35 49.0992 156.555 45.8476C349.28 31.9847 521.306 32.0753 714.039 45.8476C754.535 48.7413 781.846 72.217 801.623 117.422C821.4 162.626 866.625 342.503 866.625 461.166C866.625 579.828 800.701 604.314 793.167 606.197C792.231 606.431 791.252 606.738 790.23 607.058C788.73 607.528 787.139 608.026 785.464 608.363C784.548 608.844 783.507 609.208 782.326 609.438C765.374 612.734 722.053 589.19 698.038 559.054C689.424 548.244 684.601 533.645 680.183 520.27C677.303 511.55 674.594 503.351 671.12 497.063C665.064 486.104 660.246 477.383 656.6 473.353C647.653 463.464 625.993 443.217 598.211 443.217H272.36C244.578 443.217 222.918 463.464 213.971 473.353C210.325 477.383 205.507 486.104 199.451 497.063C196.307 502.754 192.828 510.972 189.007 519.999C182.131 536.244 174.146 555.11 164.999 566.588C140.984 596.724 105.197 612.734 88.2454 609.438C87.0584 609.207 86.0118 608.84 85.0929 608.355C83.4313 608.018 81.8529 607.524 80.3634 607.058C79.342 606.738 78.3624 606.431 77.4264 606.197C69.8923 604.314 3.96875 579.828 3.96875 461.166C3.96875 342.503 49.1934 162.626 68.9705 117.422Z" stroke="white" stroke-width="6"/>
<path d="M271.798 21.9816C280.624 29.7583 290.712 36.7353 310.888 37.2947C339.097 36.4987 366.298 35.9814 393.152 35.7253C315.9 36.6164 238.079 39.9838 156.554 45.8479C128.224 47.8857 108.771 57.7259 93.3281 75.915C110.234 44.9657 131.279 28.7578 166.893 26.056C182.375 24.8816 196.551 23.2222 210.474 21.5925C226.722 19.6906 242.625 17.829 259.856 16.8257C262.702 16.66 265.622 17.5856 267.949 19.2316C268.294 19.4753 268.64 19.7195 268.976 19.9564C270.382 20.9493 271.608 21.8142 271.798 21.9816Z" stroke="white" stroke-width="2"/>
<path d="M778.392 78.5384C760.319 45.791 736.501 28.5281 703.698 26.056C688.177 24.8863 673.967 23.2274 660.009 21.5981C643.789 19.7045 627.908 17.8507 610.705 16.8504C607.863 16.6851 604.946 17.6076 602.62 19.2503C602.284 19.4878 601.947 19.7256 601.619 19.9565C600.211 20.9498 598.982 21.8164 598.794 21.9816C589.967 29.7583 577.778 36.7969 559.704 37.2947C536.371 36.6813 513.729 36.222 491.404 35.9267C564.077 37.0603 637.422 40.3731 714.038 45.8479C740.648 47.7494 761.565 58.5378 778.392 78.5384Z" stroke="white" stroke-width="2"/>
<rect x="312.472" y="96.8592" width="11.037" height="7.42558" stroke="white" stroke-width="1.58365"/>
<path fill-rule="evenodd" clip-rule="evenodd" d="M307.584 92.5837H317.037V94.9415H318.621V92.5837V91H317.037H307.584H306V92.5837V98.4256V100.009H307.584H310.417V98.4256H307.584V92.5837Z" fill="white"/>
<path fill-rule="evenodd" clip-rule="evenodd" d="M554 92H569V93.7143H554V92ZM554 97.1429H569V98.8571H554V97.1429ZM569 102.286H554V104H569V102.286Z" fill="white"/>
</svg>

<svg width="870" height="613" fill="none" xmlns="http://www.w3.org/2000/svg"><circle cx="217.75" cy="173.927" r="79.579" stroke="#fff" stroke-width=".942"/><circle cx="217.75" cy="173.927" r="63.569" stroke="#fff" stroke-width=".942"/><circle cx="217.75" cy="173.928" r="50.297" stroke="#fff" stroke-width="3"/><circle cx="217.75" cy="173.928" r="30.607" stroke="#fff" stroke-width=".942"/><circle cx="528.532" cy="315.193" r="79.579" stroke="#fff" stroke-width=".942"/><circle cx="528.532" cy="315.192" r="63.569" stroke="#fff" stroke-width=".942"/><circle cx="528.533" cy="315.192" r="50.297" stroke="#fff" stroke-width="3"/><circle cx="528.533" cy="315.191" r="30.607" stroke="#fff" stroke-width=".942"/><circle cx="326.995" cy="316.133" r="71.103" stroke="#fff" stroke-width=".942"/><circle cx="326.995" cy="316.135" r="56.035" stroke="#fff" stroke-width=".942"/><path d="M377.895 334.028c1.621 0 3.073-1.034 3.511-2.594a56.566 56.566 0 0 0 2.095-15.299c0-5.302-.73-10.433-2.095-15.299-.438-1.561-1.89-2.595-3.511-2.595h-31.123a1.883 1.883 0 0 1-1.883-1.883v-31.123c0-1.621-1.034-3.073-2.595-3.511a56.566 56.566 0 0 0-15.299-2.095c-5.302 0-10.433.73-15.299 2.095-1.561.438-2.594 1.89-2.594 3.511v31.123c0 1.04-.844 1.883-1.884 1.883h-31.122c-1.622 0-3.073 1.034-3.511 2.595a56.527 56.527 0 0 0-2.096 15.299c0 5.302.73 10.433 2.096 15.299.438 1.56 1.889 2.594 3.511 2.594h31.122c1.04 0 1.884.844 1.884 1.884v31.122c0 1.621 1.033 3.073 2.594 3.511a56.567 56.567 0 0 0 15.299 2.096c5.302 0 10.433-.731 15.299-2.096 1.561-.438 2.595-1.89 2.595-3.511v-31.122c0-1.04.843-1.884 1.883-1.884h31.123Z" stroke="#fff" stroke-width="3"/><circle cx="660.38" cy="116.479" r="26.84" stroke="#fff" stroke-width="2.825"/><circle cx="660.38" cy="231.376" r="26.84" stroke="#fff" stroke-width="2.825"/><circle cx="602.933" cy="172.985" r="26.84" stroke="#fff" stroke-width="2.825"/><circle cx="716.886" cy="172.985" r="26.84" stroke="#fff" stroke-width="2.825"/><path d="M656.604 132.491v-11.189l-9.571-18.271h6.03l5.604 11.027c.176.365.331.702.466 1.012.148.31.29.641.425.991h.101c.135-.35.27-.681.404-.991.149-.31.317-.647.506-1.012l5.605-11.027h5.422l-9.469 18.19v11.27h-5.523Zm-66.118 55.562 9.915-16.874h.971l7.021-12.585h5.341l-9.287 16.126h-.93l-7.608 13.333h-5.423Zm.486-29.459h6.11l7.163 12.565h.04l9.935 16.894h-6.151l-7.668-13.333h-.041l-9.388-16.126Zm55.919 86.907 9.995-29.521h6.009l9.975 29.521h-5.605l-6.859-21.387a32.98 32.98 0 0 1-.404-1.376 82.912 82.912 0 0 1-.304-1.214h-.101c-.094.392-.196.796-.303 1.214-.108.405-.243.864-.405 1.376l-6.738 21.387h-5.26Zm5.179-6.778 1.052-3.926h13.253l1.093 3.926H652.07Zm55.121-50.67v-29.459h10.542c2.927 0 5.166.634 6.717 1.902 1.552 1.268 2.327 3.163 2.327 5.685 0 1.659-.371 3.035-1.113 4.128-.728 1.079-1.659 1.821-2.792 2.225v.081c1.403.378 2.556 1.167 3.46 2.368.904 1.187 1.356 2.785 1.356 4.795 0 2.617-.85 4.654-2.55 6.11-1.686 1.444-3.972 2.165-6.859 2.165h-11.088Zm5.382-3.905h4.958c1.591 0 2.765-.425 3.52-1.274.756-.85 1.133-2.003 1.133-3.46 0-1.471-.377-2.637-1.133-3.501-.755-.876-1.929-1.315-3.52-1.315h-4.958v9.55Zm0-12.969h4.432c1.578 0 2.718-.385 3.419-1.153.701-.769 1.052-1.842 1.052-3.218 0-1.375-.351-2.421-1.052-3.136-.701-.715-1.841-1.079-3.419-1.092h-4.432v8.599Z" fill="#fff"/><path d="M299.8 86.631c0-8.793 7.128-15.922 15.922-15.922s15.923 7.129 15.923 15.922v22.41c0 8.793-7.129 15.922-15.923 15.922s-15.922-7.129-15.922-15.922v-22.41Zm245.506.59c0-9.12 7.392-16.512 16.512-16.512 9.119 0 16.512 7.393 16.512 16.512v21.23c0 9.119-7.393 16.512-16.512 16.512-9.12 0-16.512-7.393-16.512-16.512v-21.23Z" stroke="#fff"/><path d="M68.972 117.421c19.777-45.205 42.379-68.322 87.584-71.574 192.725-13.863 364.751-13.772 557.484 0 40.496 2.894 67.807 26.37 87.584 71.574 19.777 45.205 65.002 225.082 65.002 343.744 0 118.663-65.924 143.148-73.458 145.032-.936.234-1.915.541-2.937.86-1.5.47-3.091.968-4.766 1.305-.916.481-1.957.846-3.138 1.076-16.952 3.296-60.273-20.248-84.288-50.385-8.614-10.809-13.437-25.409-17.855-38.784-2.88-8.719-5.589-16.918-9.063-23.207-6.056-10.959-10.874-19.68-14.52-23.709-8.947-9.889-30.607-30.137-58.389-30.137H272.361c-27.782 0-49.442 20.248-58.389 30.137-3.646 4.029-8.464 12.75-14.52 23.709-3.145 5.692-6.623 13.909-10.444 22.936-6.876 16.245-14.861 35.111-24.008 46.589-24.015 30.137-59.802 46.147-76.754 42.851-1.187-.231-2.233-.598-3.152-1.083-1.662-.337-3.24-.831-4.73-1.298-1.021-.319-2-.626-2.937-.86-7.534-1.884-73.457-26.369-73.457-145.032 0-118.662 45.224-298.539 65.002-343.744Z" stroke="#fff" stroke-width="6"/><path d="M271.8 21.981c8.826 7.777 18.914 14.754 39.09 15.313a4390.08 4390.08 0 0 1 82.264-1.569c-77.252.891-155.073 4.258-236.598 10.123-28.33 2.038-47.783 11.878-63.226 30.067 16.906-30.95 37.951-47.157 73.565-49.86 15.482-1.174 29.658-2.833 43.581-4.463 16.248-1.902 32.151-3.763 49.382-4.767 2.846-.165 5.765.76 8.093 2.406l1.026.725c1.407.993 2.633 1.858 2.823 2.025Zm506.594 56.557c-18.073-32.747-41.891-50.01-74.694-52.482-15.521-1.17-29.731-2.829-43.689-4.458-16.221-1.894-32.101-3.747-49.304-4.748-2.842-.165-5.759.757-8.085 2.4l-1.001.706c-1.408.994-2.637 1.86-2.825 2.025-8.827 7.777-21.016 14.816-39.09 15.313a5220.363 5220.363 0 0 0-68.3-1.367c72.673 1.133 146.018 4.446 222.634 9.92 26.61 1.902 47.527 12.69 64.354 32.691Z" stroke="#fff" stroke-width="2"/></svg>
